packages/astro-components-stencil/src/icons/mobile-screen-share.svg

<svg width="24" height="24" viewBox="0 0 24 24" fill="none" xmlns="http://www.w3.org/2000/svg">
<path fill-rule="evenodd" clip-rule="evenodd" d="M17 1H7.00001C5.90001 1 5.01001 1.9 5.01001 3V21C5.01001 22.1 5.90001 23 7.00001 23H17C18.1 23 19 22.1 19 21V3C19 1.9 18.1 1 17 1ZM17 19H7.00001V5H17V19ZM12.8 14.97V13.22C10.58 13.22 9.11001 13.9 8.00001 15.4C8.45001 13.26 9.69001 11.13 12.8 10.7V9L15.61 11.62C15.82 11.82 15.82 12.15 15.61 12.35L12.8 14.97Z" fill="black"/>
</svg>

<svg xmlns="http://www.w3.org/2000/svg" viewBox="0 0 24 24"><g xmlns="http://www.w3.org/2000/svg" id="mobile-screen-share" fill-rule="nonzero">
            <path d="M17 1H7c-1.1 0-1.99.9-1.99 2v18c0 1.1.89 2 1.99 2h10c1.1 0 2-.9 2-2V3c0-1.1-.9-2-2-2zm0 18H7V5h10v14zm-4.2-5.78v1.75l2.81-2.62c.21-.2.21-.53 0-.73L12.8 9v1.7c-3.11.43-4.35 2.56-4.8 4.7 1.11-1.5 2.58-2.18 4.8-2.18z"/>
        </g></svg>
